X: 1
T: Salt Creek
R: reel
Z: 2014 John Chambers <jc:trillian.mit.edu>
S: handwritten MS by John Chambers (1970s)
M: 2/4
L: 1/16
K: Amix
|:\
"A"(GA)AA A2AA | "A7"BABc "D"d4  | "G"BAG2 BAG2  | ABAG "E7"E4 |\
"A"(GA)AA A2AA | "A7"BABc "D"d3f | "G"gagf ecd^d | "E7"ecB2 "A"A4 :|
|:\
"A"a2aa a2aa | c'aba faef | "G"gagf efga | gfed cde2 |\
"A"a2aa a2aa | c'aba faef | "G"gagf edcA | "E7"B^GEF "A"A4 :|
